!!!OTL: Schneiderlied (2-58), S. 153f
!!!id: K1139
**kern
*clefG2
*k[b-]
*F:
{4f
=1
4f
4f
4f
4f
=2
4f
4d
8c
8c}
=3
{4c
=4
8d
8d
4d
4e
8d
8e
=5
2f}
4r
=6
{4cc
=7
4a
4a
4a
4a
=8
4a
4cc
4cc}
=9
{4cc
=10
4b-
4a
4b-
4a
=11
4b-
4dd
4cc}
=12
{4cc
=13
8cc
8cc
4cc
4.cc
8b-
=14
2a}
2r
=15
{8.f
16f
8.a
16a
4cc
4f
=16
4e
4g
2cc}
=17
{4c
4e
4g
4e
=18
2g
4f}
4r
=19
{8.f
16f
8.a
16a
4cc
4f
=20
4e
4g
2cc}
=21
{4c
4e
4g
4e
=22
2g
4f}
=23
{4ff
=24
4f
4f
4f
4ff
=25
4f
4f
4f
4r
=26
2ff
2f}
=27
2r
=28
{4.cc
8b-
=29
4a
4a
4a
8.a
16g
=30
4f
4f
4f}
=31
{8.c
16c
=32
4d
4d
4e
4e
=33
4f
4a
2cc}
=34
{4.f
8a
4cc
4f
=35
2g
4f}
==
*-
!!!minrhy: 16
!!!meters: 4/4 ]  ZZ[13
!!!cut: Schneiderlied (2-58), S. 153f
!!!reg: Luxemburg
!!!trd: KINTZELE, Guillaume: An der Ucht, Bd. 2, Luxemburg 1927
!!!rhy1: X__  X__X__X__X__  X__X__X_X_   (x2)
!!!rhy2: X__  X_X_X__X__X_X_  X___0_
!!!key: K1139  16  F 4/4 ]  ZZ[13
!!!mod: HEPTATONIK IONISCH]  AMBITUS[11
!!!kad: -5155351511151
!!!akz1: 111-5_-6-71_3335_4445_553_15-75_-5221_15-75_-5221_1111+11_53311_-6-715_1521_
!! ]
!!!fot: 'a__b__as"as"c__d__e__d__e__aw_f__bv_g__
!!!for: 'a__b__aw_aw_c__d__e__d__ev_aw_f__aw_g__
!!!fok: '\__/__V__V__\__~a_/__~a_/__\__\__/__^__
!! PHRAS[GEMISCHTTAKTIG]
!!!fkt: Spottlied
!!!bem: in der Quelle mit einer 2. Stimme versehen
!! KINTZELE
!! PR[38] 2K[0] 2G[10] 3K[8] 3G[2] 4A[8] 4Ü[0] 5A[0] 6K[0] 6G[0]
!! 7K[0] 7G[0] 8A[0] MEHR[0] SI[27] ABS[52] SR[10] SP[17]
!! ST[14] 2k[8] 2g[21] 3k[2] 3g[0] 4d[2] 4ü[0] 5d[2] 6k[0] 6g[0]
!! 7k[0] 7g[0] 8d[0] mehr[0] si[35] dm[-8] sr[29] sp[6]
!! 1F[2] 2F[57] 3F[22] 4F[0] LF[0] 2P[2] 3P[17] 4P[0] TRI[0] DF[5] AB[54]
!! TF[0] U3K[0] U3[0] U4[0] U4Ü[0] U5[0] U6K[0] U6[0] U7K[0] U7[0]
!! N1[0] N2K[0] N2[8] N3K[0] N3[9] N4[13] N4Ü[0] N5[26] N6K[0] N6[21]
!!!n7k: 0] N7[6] O1[13] O2K[0] O2[4] O3K[0] O3[0] HÖ[0
